X:86
T:Humours of Wapping, The
M: C|
L:1/8
B:Thompson's Compleat Collection of 200 Favourite Country Dances, vol. 3 (London, 1773)
Z:Transcribed and edited by Flynn Titford-Mock, 2007
Z:abc's:AK/Fiddler's Companion
K:Bb
FE | DFBF B2 AG | ABcd e2 dc | dfdB cecA | B2 BB B2::de | fdfd b2 ag | fdfd B2 cd |
efgf edcB | cBAG "tr"F3E | DFBF EGcB | ABcd e2g2 | fbag fedc | B2 BB B2 :|

